ix/document-1_bulk.svg

<svg viewBox="0 0 24 24" fill="none" xmlns="http://www.w3.org/2000/svg" height="1em" width="1em">
  <path opacity=".4" d="M16.19 2H7.81C4.17 2 2 4.17 2 7.81v8.37C2 19.83 4.17 22 7.81 22h8.37c3.64 0 5.81-2.17 5.81-5.81V7.81C22 4.17 19.83 2 16.19 2Z" fill="#292D32"/>
  <path d="M15.75 9.75h-7.5c-.41 0-.75-.34-.75-.75s.34-.75.75-.75h7.5c.41 0 .75.34.75.75s-.34.75-.75.75Zm0 6h-7.5c-.41 0-.75-.34-.75-.75s.34-.75.75-.75h7.5c.41 0 .75.34.75.75s-.34.75-.75.75Z" fill="#292D32"/>
</svg>

<svg viewBox="0 0 24 24" fill="none" xmlns="http://www.w3.org/2000/svg" height="1em" width="1em">
  <path opacity="0.4" d="M16.19 2H7.81C4.17 2 2 4.17 2 7.81V16.18C2 19.83 4.17 22 7.81 22H16.18C19.82 22 21.99 19.83 21.99 16.19V7.81C22 4.17 19.83 2 16.19 2Z" fill="#292D32"/>
  <path d="M15.75 9.75H8.25C7.84 9.75 7.5 9.41 7.5 9C7.5 8.59 7.84 8.25 8.25 8.25H15.75C16.16 8.25 16.5 8.59 16.5 9C16.5 9.41 16.16 9.75 15.75 9.75Z" fill="#292D32"/>
  <path d="M15.75 15.75H8.25C7.84 15.75 7.5 15.41 7.5 15C7.5 14.59 7.84 14.25 8.25 14.25H15.75C16.16 14.25 16.5 14.59 16.5 15C16.5 15.41 16.16 15.75 15.75 15.75Z" fill="#292D32"/>
</svg>
